app/images/dist/puzzle-icon.svg

<svg width="38" height="38" viewBox="0 0 38 38" fill="none" xmlns="http://www.w3.org/2000/svg">
<path d="M11.4987 6.49998C11.4987 4.1988 13.3642 2.33331 15.6654 2.33331C17.9665 2.33331 19.832 4.1988 19.832 6.49998V8.99998H21.4987C23.8284 8.99998 24.9932 8.99998 25.9122 9.38058C27.1372 9.88805 28.1107 10.8614 28.618 12.0866C28.9987 13.0054 28.9987 14.1703 28.9987 16.5H31.4987C33.7999 16.5 35.6654 18.3655 35.6654 20.6666C35.6654 22.9678 33.7999 24.8333 31.4987 24.8333H28.9987V27.6666C28.9987 30.467 28.9987 31.867 28.4537 32.9366C27.9744 33.8775 27.2095 34.6423 26.2687 35.1216C25.199 35.6666 23.799 35.6666 20.9987 35.6666H19.832V32.75C19.832 30.679 18.153 29 16.082 29C14.011 29 12.332 30.679 12.332 32.75V35.6666H10.332C7.53176 35.6666 6.13163 35.6666 5.06208 35.1216C4.12126 34.6423 3.35636 33.8775 2.877 32.9366C2.33203 31.867 2.33203 30.467 2.33203 27.6666V24.8333H4.83203C7.13321 24.8333 8.9987 22.9678 8.9987 20.6666C8.9987 18.3655 7.13321 16.5 4.83203 16.5H2.33203C2.33203 14.1703 2.33203 13.0054 2.71263 12.0866C3.2201 10.8614 4.19348 9.88805 5.41861 9.38058C6.33746 8.99998 7.50233 8.99998 9.83203 8.99998H11.4987V6.49998Z" stroke="white" stroke-width="3" stroke-linecap="round" stroke-linejoin="round"/>
</svg>

<svg width="38" height="38" fill="none" xmlns="http://www.w3.org/2000/svg"><path d="M11.499 6.5a4.167 4.167 0 0 1 8.333 0V9h1.667c2.33 0 3.494 0 4.413.38a5 5 0 0 1 2.706 2.707c.38.918.38 2.083.38 4.413h2.5a4.167 4.167 0 1 1 0 8.333h-2.5v2.834c0 2.8 0 4.2-.544 5.27a4.999 4.999 0 0 1-2.185 2.185c-1.07.545-2.47.545-5.27.545h-1.167V32.75a3.75 3.75 0 0 0-7.5 0v2.917h-2c-2.8 0-4.2 0-5.27-.545a4.999 4.999 0 0 1-2.185-2.185c-.545-1.07-.545-2.47-.545-5.27v-2.834h2.5a4.167 4.167 0 0 0 0-8.333h-2.5c0-2.33 0-3.495.38-4.413A5 5 0 0 1 5.42 9.38C6.337 9 7.502 9 9.832 9h1.667V6.5Z" stroke="#fff" stroke-width="3" stroke-linecap="round" stroke-linejoin="round"/></svg>
